flaticon/sewing/patch.svg

<svg xmlns="http://www.w3.org/2000/svg" width="32" height="32" viewBox="0 0 24 24">
    <path d="M 23.601562 0 L 0.398438 0 C 0.160156 0 0 0.160156 0 0.398438 L 0 17.199219 C 0 17.359375 0.078125 17.480469 0.199219 17.558594 L 11.800781 23.960938 C 11.878906 24 11.921875 24 12 24 C 12.078125 24 12.121094 24 12.199219 23.960938 L 23.800781 17.558594 C 23.921875 17.480469 24 17.359375 24 17.199219 L 24 0.398438 C 24 0.160156 23.839844 0 23.601562 0 Z M 23.199219 16.960938 L 12 23.121094 L 0.800781 16.960938 L 0.800781 0.800781 L 23.199219 0.800781 Z M 23.199219 16.960938"/>
    <path d="M2.601562 16.121094L4.160156 17C4.238281 17.039062 4.28125 17.039062 4.359375 17.039062 4.519531 17.039062 4.640625 16.960938 4.71875 16.878906 4.839844 16.679688 4.761719 16.441406 4.558594 16.320312L3.199219 15.558594 3.199219 14C3.199219 13.761719 3.039062 13.601562 2.800781 13.601562 2.558594 13.601562 2.398438 13.761719 2.398438 14L2.398438 15.800781C2.398438 15.921875 2.480469 16.078125 2.601562 16.121094zM2.800781 11.71875C3.039062 11.71875 3.199219 11.519531 3.199219 11.320312L3.199219 7.28125C3.199219 7.039062 3.039062 6.878906 2.800781 6.878906 2.558594 6.878906 2.398438 7.039062 2.398438 7.28125L2.398438 11.320312C2.398438 11.558594 2.558594 11.71875 2.800781 11.71875zM2.800781 5C3.039062 5 3.199219 4.839844 3.199219 4.601562L3.199219 3.199219 4.601562 3.199219C4.839844 3.199219 5 3.039062 5 2.800781 5 2.558594 4.839844 2.398438 4.601562 2.398438L2.800781 2.398438C2.558594 2.398438 2.398438 2.558594 2.398438 2.800781L2.398438 4.601562C2.398438 4.839844 2.558594 5 2.800781 5zM7.078125 3.199219L10.761719 3.199219C11 3.199219 11.160156 3.039062 11.160156 2.800781 11.160156 2.558594 11 2.398438 10.761719 2.398438L7.078125 2.398438C6.839844 2.398438 6.679688 2.558594 6.679688 2.800781 6.679688 3.039062 6.839844 3.199219 7.078125 3.199219zM13.238281 3.199219L16.921875 3.199219C17.160156 3.199219 17.320312 3.039062 17.320312 2.800781 17.320312 2.558594 17.160156 2.398438 16.921875 2.398438L13.238281 2.398438C13 2.398438 12.839844 2.558594 12.839844 2.800781 12.839844 3.039062 13 3.199219 13.238281 3.199219zM19.398438 3.199219L20.800781 3.199219 20.800781 4.601562C20.800781 4.839844 20.960938 5 21.199219 5 21.441406 5 21.601562 4.839844 21.601562 4.601562L21.601562 2.800781C21.601562 2.558594 21.441406 2.398438 21.199219 2.398438L19.398438 2.398438C19.160156 2.398438 19 2.558594 19 2.800781 19 3.039062 19.160156 3.199219 19.398438 3.199219zM21.199219 6.878906C20.960938 6.878906 20.800781 7.039062 20.800781 7.28125L20.800781 11.320312C20.800781 11.558594 20.960938 11.71875 21.199219 11.71875 21.441406 11.71875 21.601562 11.519531 21.601562 11.320312L21.601562 7.28125C21.601562 7.039062 21.441406 6.878906 21.199219 6.878906zM21.199219 13.601562C20.960938 13.601562 20.800781 13.761719 20.800781 14L20.800781 15.519531 19.441406 16.28125C19.238281 16.398438 19.160156 16.640625 19.28125 16.839844 19.359375 16.960938 19.480469 17.039062 19.640625 17.039062 19.679688 17.039062 19.761719 17.039062 19.839844 17.039062L21.398438 16.160156C21.519531 16.078125 21.601562 15.960938 21.601562 15.800781L21.601562 14C21.601562 13.761719 21.441406 13.601562 21.199219 13.601562zM14.960938 19.238281C15.039062 19.359375 15.160156 19.441406 15.320312 19.441406 15.359375 19.441406 15.441406 19.398438 15.519531 19.398438L18.121094 17.960938C18.320312 17.839844 18.398438 17.601562 18.28125 17.398438 18.160156 17.199219 17.921875 17.121094 17.71875 17.238281L15.121094 18.679688C14.921875 18.800781 14.839844 19.039062 14.960938 19.238281zM10.078125 19.761719C9.960938 19.960938 10.039062 20.199219 10.238281 20.320312L11.800781 21.199219C11.878906 21.238281 11.921875 21.238281 12 21.238281 12.078125 21.238281 12.121094 21.238281 12.199219 21.199219L13.800781 20.359375C14 20.238281 14.078125 20 13.960938 19.800781 13.839844 19.601562 13.601562 19.519531 13.398438 19.640625L12 20.398438 10.640625 19.601562C10.441406 19.480469 10.199219 19.558594 10.078125 19.761719zM5.878906 17.960938L8.480469 19.398438C8.558594 19.441406 8.601562 19.441406 8.679688 19.441406 8.839844 19.441406 8.960938 19.359375 9.039062 19.238281 9.160156 19.039062 9.078125 18.800781 8.878906 18.679688L6.28125 17.238281C6.078125 17.121094 5.839844 17.199219 5.71875 17.398438 5.601562 17.601562 5.679688 17.839844 5.878906 17.960938zM5.878906 17.960938"/>
</svg>

<svg xmlns="http://www.w3.org/2000/svg" width="32" height="32" viewBox="0 0 24 24">
    <path d="M23.602 0H.398C.16 0 0 .16 0 .398V17.2c0 .16.078.281.2.36l11.6 6.402c.079.039.122.039.2.039.078 0 .121 0 .2-.04l11.6-6.401c.122-.079.2-.2.2-.36V.4C24 .16 23.84 0 23.602 0zm-.403 16.96L12 23.122.8 16.961V.8h22.4zm0 0"/>
    <path d="M2.602 16.121L4.16 17c.078.04.121.04.2.04.16 0 .28-.08.359-.161.12-.2.043-.438-.16-.559l-1.36-.761V14c0-.238-.16-.398-.398-.398-.242 0-.403.16-.403.398v1.8c0 .122.082.278.204.321zm0 0M2.8 11.719a.4.4 0 0 0 .4-.399V7.281c0-.242-.16-.402-.4-.402-.241 0-.402.16-.402.402v4.04c0 .238.16.398.403.398zm0 0M2.8 5c.24 0 .4-.16.4-.398V3.199h1.402C4.84 3.2 5 3.04 5 2.801c0-.242-.16-.403-.398-.403H2.8c-.242 0-.403.16-.403.403v1.8c0 .239.16.399.403.399zm0 0M7.078 3.2h3.684c.238 0 .398-.16.398-.4 0-.241-.16-.402-.398-.402H7.078c-.238 0-.398.16-.398.403 0 .238.16.398.398.398zm0 0M13.238 3.2h3.684c.238 0 .398-.16.398-.4 0-.241-.16-.402-.398-.402h-3.684c-.238 0-.398.16-.398.403 0 .238.16.398.398.398zm0 0M19.398 3.2h1.403v1.402c0 .238.16.398.398.398.242 0 .403-.16.403-.398V2.8c0-.242-.16-.403-.403-.403h-1.8c-.239 0-.399.16-.399.403 0 .238.16.398.398.398zm0 0M21.2 6.879c-.24 0-.4.16-.4.402v4.04c0 .238.16.398.4.398a.4.4 0 0 0 .402-.399V7.281c0-.242-.16-.402-.403-.402zm0 0M21.2 13.602c-.24 0-.4.16-.4.398v1.52l-1.359.761c-.203.117-.28.36-.16.559.078.12.2.2.36.2h.199l1.558-.88a.422.422 0 0 0 .204-.36V14c0-.238-.16-.398-.403-.398zm0 0M14.96 19.238c.08.121.2.203.36.203.04 0 .121-.043.2-.043l2.601-1.437c.2-.121.277-.36.16-.563-.12-.199-.36-.277-.562-.16L15.12 18.68c-.2.12-.281.36-.16.558zm0 0M10.078 19.762c-.117.199-.039.437.16.558l1.563.88c.078.038.12.038.199.038.078 0 .121 0 .2-.039l1.6-.84c.2-.12.278-.359.16-.558-.12-.2-.358-.281-.562-.16L12 20.398l-1.36-.796c-.199-.122-.44-.043-.562.16zm0 0M5.879 17.96l2.601 1.438c.079.043.122.043.2.043.16 0 .28-.082.36-.203.12-.199.038-.437-.161-.558L6.28 17.238c-.203-.117-.441-.039-.562.16-.117.204-.04.442.16.563zm0 0"/>
</svg>
